X: 14
T: Cock O' the North, The
C: J-6
M: 6/8
Z: Transcribed to abc by Mary Lou Knack
R: jig
K: A
e/d/| "A"cdc cBA| cde "D"f2e| "A"cdc cBA| "E"B3- B2e|
      "A"cdc cBA| Ace "D"f2e| "A"cdc "G"B=GB| "A"A3- A2 :|
|:\
(3e/f/g/| "A"a2e "D"f2e| "A"a2e "D"f2e| "A"cdc cBA| "E7"BcB B2e|
          "A"a2e "D"f2e| "A"a2e "D"f2e| "A"cdc "G"B=GB| "A"A3- A2 :|
%%text 9/1/98
% ---------- page 8 ----------
